src/frontend/src/assets/icon_storage.svg

<svg width="24" height="24" viewBox="0 0 24 24" fill="none" xmlns="http://www.w3.org/2000/svg">
<g id="&#229;&#134;&#133;&#229;&#173;&#152;">
<g id="Group 9070">
<path id="Vector" d="M19.4167 4H5.25C4.55965 4 4 4.55965 4 5.25V19.4167C4 20.107 4.55965 20.6667 5.25 20.6667H19.4167C20.107 20.6667 20.6667 20.107 20.6667 19.4167V5.25C20.6667 4.55965 20.107 4 19.4167 4Z" stroke="#A6B6D1" stroke-linejoin="round"/>
<path id="Vector_2" d="M16.4997 4V11.5H8.58301V4H16.4997Z" stroke="#A6B6D1" stroke-linejoin="round"/>
<path id="Vector_3" d="M14.416 6.9165V8.58317" stroke="#A6B6D1" stroke-linecap="round"/>
<path id="Vector_4" d="M7.33203 4H17.7494" stroke="#A6B6D1" stroke-linecap="round"/>
</g>
</g>
</svg>

<svg width="24" height="24" viewBox="0 0 24 24" fill="none" xmlns="http://www.w3.org/2000/svg"><g stroke="#A6B6D1"><path d="M19.417 4H5.25C4.56 4 4 4.56 4 5.25v14.167c0 .69.56 1.25 1.25 1.25h14.167c.69 0 1.25-.56 1.25-1.25V5.25c0-.69-.56-1.25-1.25-1.25z" stroke-linejoin="round"/><path d="M16.5 4v7.5H8.583V4H16.5z" stroke-linejoin="round"/><path d="M14.416 6.917v1.666M7.332 4h10.417" stroke-linecap="round"/></g></svg>
